assets/Maple leaf/Flat/maple_leaf_flat.svg

<svg width="32" height="32" viewBox="0 0 32 32" fill="none" xmlns="http://www.w3.org/2000/svg">
<path d="M29.7164 17.8025L27.3964 17.3625C27.2564 17.3325 27.1864 17.1725 27.2564 17.0525L29.4164 13.5825C29.5064 13.4325 29.3964 13.2525 29.2264 13.2625L25.1564 13.6325C25.0164 13.6425 24.8964 13.5124 24.9364 13.3724L25.5764 11.1325C25.6264 10.9525 25.4264 10.8025 25.2664 10.9025L20.9164 13.6525C20.7664 13.7425 20.5764 13.6225 20.5964 13.4525L21.8764 4.12245C21.8964 3.95245 21.7164 3.8225 21.5664 3.9225L18.2764 5.9225C18.1764 5.9825 18.0364 5.94248 17.9864 5.84248L16.1264 2.1125C16.0464 1.9625 15.8364 1.9625 15.7564 2.1125L13.8964 5.84248C13.8464 5.95248 13.7064 5.99251 13.6064 5.93251L10.2064 3.9225C10.0564 3.8325 9.86642 3.96246 9.89642 4.13246L11.5264 13.4525C11.5564 13.6225 11.3664 13.7525 11.2164 13.6625L6.60642 10.8925C6.44642 10.7925 6.24641 10.9424 6.29641 11.1224L6.94642 13.3825C6.98642 13.5225 6.87641 13.6625 6.72641 13.6425L2.65641 13.2725C2.48641 13.2525 2.37642 13.4425 2.46642 13.5925L4.62642 17.0625C4.70642 17.1825 4.63642 17.3524 4.48642 17.3724L2.16642 17.8125C1.98642 17.8425 1.93642 18.0825 2.09642 18.1925L8.63642 22.4825C8.80642 22.5925 8.84642 22.8125 8.73642 22.9825L6.80642 25.7325C6.71642 25.8625 6.84642 26.0425 6.99642 25.9825L15.3764 22.9225C15.7364 22.7925 16.1364 22.7925 16.4964 22.9225L24.8764 25.9825C25.0264 26.0425 25.1664 25.8625 25.0664 25.7325L23.1364 22.9825C23.0264 22.8225 23.0664 22.5925 23.2364 22.4825L29.7764 18.1925C29.9464 18.0725 29.8964 17.8325 29.7164 17.8025Z" fill="#F8312F"/>
<path d="M15.9464 11.2725C16.4987 11.2725 16.9464 11.7202 16.9464 12.2725V20.3934L22.3889 17.5933C22.88 17.3407 23.4829 17.534 23.7356 18.0251C23.9882 18.5162 23.7949 19.1191 23.3038 19.3718L16.9464 22.6426V28.9725C16.9464 29.5248 16.4987 29.9725 15.9464 29.9725C15.3941 29.9725 14.9464 29.5248 14.9464 28.9725V22.6426L8.58886 19.3718C8.09776 19.1191 7.90447 18.5162 8.15714 18.0251C8.4098 17.534 9.01275 17.3407 9.50384 17.5933L14.9464 20.3935V12.2725C14.9464 11.7202 15.3941 11.2725 15.9464 11.2725Z" fill="#CA0B4A"/>
</svg>

<svg xmlns="http://www.w3.org/2000/svg" width="32" height="32" fill="none"><path fill="#F8312F" d="m29.716 17.802-2.32-.44a.212.212 0 0 1-.14-.31l2.16-3.47a.208.208 0 0 0-.19-.32l-4.07.37c-.14.01-.26-.12-.22-.26l.64-2.24a.208.208 0 0 0-.31-.23l-4.35 2.75c-.15.09-.34-.03-.32-.2l1.28-9.33c.02-.17-.16-.3-.31-.2l-3.29 2c-.1.06-.24.02-.29-.08l-1.86-3.73a.208.208 0 0 0-.37 0l-1.86 3.73c-.05.11-.19.15-.29.09l-3.4-2.01c-.15-.09-.34.04-.31.21l1.63 9.32c.03.17-.16.3-.31.21l-4.61-2.77c-.16-.1-.36.05-.31.23l.65 2.26c.04.14-.07.28-.22.26l-4.07-.37c-.17-.02-.28.17-.19.32l2.16 3.47a.2.2 0 0 1-.14.31l-2.32.44c-.18.03-.23.27-.07.38l6.54 4.29c.17.11.21.33.1.5l-1.93 2.75c-.09.13.04.31.19.25l8.38-3.06c.36-.13.76-.13 1.12 0l8.38 3.06c.15.06.29-.12.19-.25l-1.93-2.75a.358.358 0 0 1 .1-.5l6.54-4.29c.17-.12.12-.36-.06-.39Z"/><path fill="#CA0B4A" d="M15.946 11.273a1 1 0 0 1 1 1v8.12l5.443-2.8a1 1 0 0 1 .915 1.779l-6.358 3.27v6.33a1 1 0 1 1-2 0v-6.33l-6.357-3.27a1 1 0 0 1 .915-1.779l5.442 2.8v-8.12a1 1 0 0 1 1-1Z"/></svg>
